X:1
T:Israel (Mason), LMD
T:Israel (Mason), LMD
T:Lowell Mason, 1839
T:Public Domain Courtesy of the Cyber Hymnal™
C:Lowell Mason, 1839
Z:Public Domain
Z:Courtesy of the Cyber Hymnal™
%%score ( 1 2 ) ( 3 4 )
L:1/8
Q:1/4=140
M:3/2
K:C
V:1 treble 
V:2 treble 
V:3 bass 
V:4 bass 
V:1
 G2 G2 G2 | [Gc]4 [Ge]4 [Gd]2 [FB]2 | [Ec]6 [EG]2 [EG]2 [EG]2 | [DF]4 [CE]4 [B,D]2 [DF]2 | %4
 [CE]6 G2 G2 G2 | [Gc]6 [Ge]2 [Gd]2 [GB]2 | [Gc]6 [^FA]2 [FA]2 [FA]2 | [Gd]2 [Ac]2 [GB]4 [^FA]4 | %8
 !fermata!G4 z2 [GB]2 [GB]2 [Ac]2 | [Bd]6 [GB]2 [Ac]2 [Bd]2 | [GB]6 [Gd]2 [Gd]2 [Gd]2 | %11
 [ce]6 [Gd]2 [Ec]2 [ce]2 | [Gd]6 G2 G2 G2 | [Gc]6 [Ge]2 [Gd]2 [GB]2 | %14
 [Ec]2 [EG]2 [EG]2 [G_B]2 [FA]2 [DF]2 | [CE]8 [B,D]4 | !fermata!C4 z2 |] %17
V:2
 G2 G2 G2 | x12 | x12 | x12 | x6 G2 G2 G2 | x12 | x12 | x12 | G4 x8 | x12 | x12 | x12 | %12
 x6 G2 G2 G2 | x12 | x12 | x12 | C4 x2 |] %17
V:3
 G,2 G,2 G,2 | [E,G,]4 [C,C]4 [G,B,]2 [G,,D]2 | [C,C]6 [C,G,]2 [C,G,]2 [C,G,]2 | %3
 [B,,G,]4 [C,G,]4 [G,,G,]2 [G,,G,]2 | [C,G,]6 G,2 G,2 G,2 | [E,G,]6 [C,C]2 [G,B,]2 [G,,D]2 | %6
 [C,E]6 [D,B,]2 [D,B,]2 [D,B,]2 | [B,,B,]2 [C,C]2 [D,B,]4 (D2 C2) | %8
 !fermata![G,,B,]4 z2 [G,B,]2 [G,B,]2 [A,C]2 | [B,D]6 [G,B,]2 [A,C]2 [B,D]2 | %10
 [G,B,]6 [G,D]2 [G,D]2 [G,D]2 | [CE]6 [G,D]2 [E,C]2 [CE]2 | [G,D]6 G,2 G,2 G,2 | %13
 [E,G,]6 [C,C]2 [G,B,]2 [G,,D]2 | [C,C]2 [C,C]2 [C,C]2 [C,C]2 [F,C]2 [F,A,]2 | G,8 G,4 | %16
 !fermata![C,G,]4 z2 |] %17
V:4
 G,2 G,2 G,2 | x12 | x12 | x12 | x6 G,2 G,2 G,2 | x12 | x12 | x8 D,4 | x12 | x12 | x12 | x12 | %12
 x6 G,2 G,2 G,2 | x12 | x12 | x12 | x6 |] %17

